res/skins/Tango/buttons/btn_fx_selector_list_hover.svg

<?xml version="1.0" encoding="UTF-8" standalone="no"?>
<!-- Created with Inkscape (http://www.inkscape.org/) -->

<svg
   xmlns:dc="http://purl.org/dc/elements/1.1/"
   xmlns:cc="http://creativecommons.org/ns#"
   xmlns:rdf="http://www.w3.org/1999/02/22-rdf-syntax-ns#"
   xmlns:svg="http://www.w3.org/2000/svg"
   xmlns="http://www.w3.org/2000/svg"
   version="1.1"
   width="11"
   height="20"
   id="svg3159">
  <metadata
     id="metadata3169">
    <rdf:RDF>
      <cc:Work
         rdf:about="">
        <dc:format>image/svg+xml</dc:format>
        <dc:type
           rdf:resource="http://purl.org/dc/dcmitype/StillImage" />
        <dc:title></dc:title>
      </cc:Work>
    </rdf:RDF>
  </metadata>
  <defs
     id="defs3167" />
  <g
     transform="matrix(0.82234461,0,0,0.82234461,0.20537782,2.1210499)"
     id="g3889">
    <path
       d="M 12.002735,4.813898 7.4999988,9.316633 2.9972649,4.813898 1.871581,5.939582 6.374315,10.442316 7.4999988,11.568 8.6256836,10.442316 13.128419,5.939582 12.002735,4.813898 z"
       id="path2989"
       style="fill:#eeeeee;fill-opacity:1" />
    <path
       d="M 12.002735,10.813898 7.4999988,15.316633 2.9972649,10.813898 1.871581,11.939582 6.374315,16.442316 7.4999988,17.568 8.6256836,16.442316 13.128419,11.939582 12.002735,10.813898 z"
       id="path2989-3"
       style="fill:#eeeeee;fill-opacity:1" />
  </g>
</svg>

<!-- Created with Inkscape (http://www.inkscape.org/) -->
<svg id="svg3159" width="11" height="20" version="1.1" xmlns="http://www.w3.org/2000/svg"><g id="g3889" transform="matrix(.82234 0 0 .82234 .20538 2.121)" fill="#eee"><path id="path2989" d="m12.003 4.8139-4.5027 4.5027-4.5027-4.5027-1.1257 1.1257 5.6284 5.6284 5.6284-5.6284-1.1257-1.1257z"/><path id="path2989-3" d="m12.003 10.814-4.5027 4.5027-4.5027-4.5027-1.1257 1.1257 5.6284 5.6284 5.6284-5.6284-1.1257-1.1257z"/></g></svg>
